static/assets/images/icons/chat.svg

<svg width="256" height="256" viewBox="0 0 256 256" fill="none" xmlns="http://www.w3.org/2000/svg">
<path d="M62.6713 133.095V84.5081H42.3356C36.9423 84.5081 31.7698 86.4278 27.9562 89.8447C24.1425 93.2617 22 97.8961 22 102.728V212.05C22.0101 213.178 22.3706 214.281 23.041 215.236C23.7115 216.19 24.6654 216.959 25.796 217.455C26.8852 217.899 28.086 218.077 29.2766 217.97C30.4672 217.863 31.605 217.476 32.5745 216.848L67.484 193.83H158.588C161.157 193.898 163.714 193.492 166.101 192.639C168.489 191.785 170.655 190.502 172.466 188.868C174.277 187.234 175.694 185.284 176.63 183.139C177.566 180.994 178 178.7 177.907 176.399V169.536H103.343C92.5559 169.536 82.211 165.697 74.5836 158.863C66.9563 152.029 62.6713 142.76 62.6713 133.095Z" fill="black"/>
<path fill-rule="evenodd" clip-rule="evenodd" d="M99.3196 43H214.555C219.83 43.1576 224.83 45.1466 228.498 48.5466C232.166 51.9467 234.216 56.4913 234.213 61.2202V170.056C234.209 171.201 233.844 172.321 233.161 173.288C232.477 174.255 231.502 175.03 230.349 175.522C229.254 175.957 228.05 176.125 226.859 176.007C225.668 175.89 224.534 175.492 223.57 174.854L191.169 152.321H99.3196C93.9262 152.321 88.7538 150.402 84.9401 146.985C81.1264 143.568 78.9839 138.934 78.9839 134.101V61.2202C78.9839 56.3879 81.1264 51.7535 84.9401 48.3366C88.7538 44.9196 93.9262 43 99.3196 43ZM119.407 116.42C124.879 116.42 129.314 112.142 129.314 106.865C129.314 101.588 124.879 97.3103 119.407 97.3103C113.936 97.3103 109.5 101.588 109.5 106.865C109.5 112.142 113.936 116.42 119.407 116.42ZM165.169 106.865C165.169 112.142 160.733 116.42 155.262 116.42C149.79 116.42 145.354 112.142 145.354 106.865C145.354 101.588 149.79 97.3103 155.262 97.3103C160.733 97.3103 165.169 101.588 165.169 106.865ZM191.116 116.42C196.587 116.42 201.023 112.142 201.023 106.865C201.023 101.588 196.587 97.3103 191.116 97.3103C185.644 97.3103 181.209 101.588 181.209 106.865C181.209 112.142 185.644 116.42 191.116 116.42Z" fill="black"/>
</svg>

<svg xmlns="http://www.w3.org/2000/svg" fill="none" viewBox="0 0 256 256"><path fill="#000" d="M62.671 133.095V84.508H42.336c-5.394 0-10.566 1.92-14.38 5.337S22 97.896 22 102.728V212.05a5.6 5.6 0 0 0 1.041 3.186c.67.954 1.624 1.723 2.755 2.219 1.09.444 2.29.622 3.48.515a7.3 7.3 0 0 0 3.299-1.122l34.909-23.018h91.104a20.7 20.7 0 0 0 7.513-1.191c2.388-.854 4.554-2.137 6.365-3.771s3.228-3.584 4.164-5.729a15.3 15.3 0 0 0 1.277-6.74v-6.863h-74.564c-10.787 0-21.132-3.839-28.76-10.673-7.627-6.834-11.912-16.103-11.912-25.768"/><path fill="#000" fill-rule="evenodd" d="M99.32 43h115.235c5.275.158 10.275 2.147 13.943 5.547s5.718 7.944 5.715 12.673v108.836a5.63 5.63 0 0 1-1.052 3.232c-.684.967-1.659 1.742-2.812 2.234a7.5 7.5 0 0 1-3.49.485 7.25 7.25 0 0 1-3.289-1.153l-32.401-22.533h-91.85c-5.393 0-10.565-1.919-14.379-5.336s-5.956-8.051-5.956-12.884v-72.88c0-4.833 2.142-9.467 5.956-12.884S93.926 43 99.32 43m20.087 73.42c5.472 0 9.907-4.278 9.907-9.555s-4.435-9.555-9.907-9.555c-5.471 0-9.907 4.278-9.907 9.555s4.436 9.555 9.907 9.555m45.762-9.555c0 5.277-4.436 9.555-9.907 9.555-5.472 0-9.908-4.278-9.908-9.555s4.436-9.555 9.908-9.555 9.907 4.278 9.907 9.555m25.947 9.555c5.471 0 9.907-4.278 9.907-9.555s-4.436-9.555-9.907-9.555c-5.472 0-9.907 4.278-9.907 9.555s4.435 9.555 9.907 9.555" clip-rule="evenodd"/></svg>
